svg/Pictogram/pictograms-nps-misc-uneven_walkways.svg

<svg xmlns="http://www.w3.org/2000/svg" viewBox="0 0 256 256"><path d="m0 0c-.541 0-.982-.439-.982-.98v-7.528c0-.541.441-.982.982-.982h7.527c.541 0 .981.441.981.982v7.528c0 .541-.44.98-.981.98h-7.527" fill="#fff" transform="matrix(25.88473 0 0-25.88473 30.591 5.2)"/><path d="m0 0h-7.908v.955l1.506-.383 1.336.358 1.234-.332.965.357 1.334-.334 1.533.285v-.906m-7.119 3.109c.033.149.146.26.283.297l1.219.311.191 1.117c.069.193.221.342.406.408l1.332.408-.691.426c-.041.028-.074.065-.096.108l-.013 1.254c-.024.062-.03.132-.001.201.049.162.219.254.381.205.086-.026.15-.084.187-.158l.004-1.235 1.293-.734c.07-.047.131-.106.18-.174l1.486-1.941c.051-.067.076-.155.063-.243-.03-.168-.186-.279-.352-.252-.084.014-.154.061-.199.125l-1.039 1.364-1.453-.424.748-.945c.064-.088.094-.204.068-.321-.002-.006-.004-.013-.006-.021l-.5-1.631c-.062-.193-.261-.311-.463-.266-.213.047-.349.258-.3.471 0 .001.004.02.005.027l.436 1.432-.809 1.027-.119-.695c-.045-.109-.136-.191-.244-.227l-1.492-.38c-.061-.018-.127-.022-.193-.006-.215.047-.35.258-.303.472m4.43 3.258c.06.348.392.578.74.518.347-.061.578-.393.517-.74-.06-.348-.392-.581-.74-.518-.348.061-.578.393-.517.74m2.433 2.664h-7.527c-.653 0-1.182-.529-1.182-1.181v-7.528c0-.652.529-1.181 1.182-1.181h7.527c.652 0 1.182.529 1.182 1.181v7.528c0 .652-.53 1.181-1.182 1.181" transform="matrix(25.88473 0 0-25.88473 232.06 233.77)"/></svg>

<?xml version="1.0" encoding="UTF-8" standalone="no"?>
<!-- Created with Inkscape (http://www.inkscape.org/) -->
<svg
   xmlns:dc="http://purl.org/dc/elements/1.1/"
   xmlns:cc="http://creativecommons.org/ns#"
   xmlns:rdf="http://www.w3.org/1999/02/22-rdf-syntax-ns#"
   xmlns:svg="http://www.w3.org/2000/svg"
   xmlns="http://www.w3.org/2000/svg"
   xmlns:sodipodi="http://sodipodi.sourceforge.net/DTD/sodipodi-0.dtd"
   xmlns:inkscape="http://www.inkscape.org/namespaces/inkscape"
   width="256"
   height="256"
   id="svg8302"
   sodipodi:version="0.32"
   inkscape:version="0.46"
   version="1.0"
   sodipodi:docname="pictograms-nps-misc-uneven_walkways-2.svg"
   inkscape:output_extension="org.inkscape.output.svg.inkscape">
  <defs
     id="defs8304">
    <inkscape:perspective
       sodipodi:type="inkscape:persp3d"
       inkscape:vp_x="0 : 526.18109 : 1"
       inkscape:vp_y="0 : 1000 : 0"
       inkscape:vp_z="744.09448 : 526.18109 : 1"
       inkscape:persp3d-origin="372.04724 : 350.78739 : 1"
       id="perspective8310" />
  </defs>
  <sodipodi:namedview
     id="base"
     pagecolor="#ffffff"
     bordercolor="#666666"
     borderopacity="1.0"
     gridtolerance="10000"
     guidetolerance="10"
     objecttolerance="10"
     inkscape:pageopacity="0.0"
     inkscape:pageshadow="2"
     inkscape:zoom="0.7"
     inkscape:cx="61.634556"
     inkscape:cy="136.73676"
     inkscape:document-units="px"
     inkscape:current-layer="layer1"
     showgrid="false"
     inkscape:window-width="738"
     inkscape:window-height="674"
     inkscape:window-x="0"
     inkscape:window-y="198" />
  <metadata
     id="metadata8307">
    <rdf:RDF>
      <cc:Work
         rdf:about="">
        <dc:format>image/svg+xml</dc:format>
        <dc:type
           rdf:resource="http://purl.org/dc/dcmitype/StillImage" />
      </cc:Work>
    </rdf:RDF>
  </metadata>
  <g
     inkscape:label="Layer 1"
     inkscape:groupmode="layer"
     id="layer1">
    <g
       id="g2722"
       transform="matrix(25.884732,0,0,-25.884732,30.59099,5.1999321)">
      <path
         d="M 0,0 C -0.541,0 -0.982,-0.439 -0.982,-0.98 L -0.982,-8.508 C -0.982,-9.049 -0.541,-9.49 0,-9.49 L 7.527,-9.49 C 8.068,-9.49 8.508,-9.049 8.508,-8.508 L 8.508,-0.98 C 8.508,-0.439 8.068,0 7.527,0 L 0,0 z"
         style="fill:#ffffff;fill-opacity:1;fill-rule:nonzero;stroke:none"
         id="path2724" />
    </g>
    <g
       id="g2726"
       transform="matrix(25.884732,0,0,-25.884732,232.05662,233.76502)">
      <path
         d="M 0,0 L -7.908,0 L -7.908,0.955 L -6.402,0.572 L -5.066,0.93 L -3.832,0.598 L -2.867,0.955 L -1.533,0.621 L 0,0.906 L 0,0 z M -7.119,3.109 C -7.086,3.258 -6.973,3.369 -6.836,3.406 L -5.617,3.717 L -5.426,4.834 C -5.357,5.027 -5.205,5.176 -5.02,5.242 L -3.688,5.65 L -4.379,6.076 C -4.42,6.104 -4.453,6.141 -4.475,6.184 L -4.488,7.438 C -4.512,7.5 -4.518,7.57 -4.498,7.639 C -4.449,7.801 -4.279,7.893 -4.117,7.844 C -4.031,7.818 -3.967,7.76 -3.93,7.686 L -3.926,6.451 L -2.633,5.717 C -2.563,5.67 -2.502,5.611 -2.453,5.543 L -0.967,3.602 C -0.916,3.535 -0.891,3.447 -0.904,3.359 C -0.934,3.191 -1.09,3.08 -1.256,3.107 C -1.34,3.121 -1.41,3.168 -1.455,3.232 L -2.494,4.596 L -3.947,4.172 L -3.199,3.227 C -3.135,3.139 -3.105,3.023 -3.131,2.906 C -3.133,2.9 -3.135,2.893 -3.137,2.885 L -3.637,1.254 C -3.699,1.061 -3.898,0.943 -4.1,0.988 C -4.313,1.035 -4.449,1.246 -4.4,1.459 C -4.4,1.469 -4.396,1.479 -4.395,1.486 L -3.959,2.918 L -4.768,3.945 L -4.887,3.25 C -4.932,3.141 -5.023,3.059 -5.131,3.023 L -6.623,2.643 C -6.684,2.625 -6.75,2.621 -6.816,2.637 C -7.031,2.684 -7.166,2.895 -7.119,3.109 M -2.689,6.367 C -2.629,6.715 -2.297,6.945 -1.949,6.885 C -1.602,6.824 -1.371,6.492 -1.432,6.145 C -1.492,5.797 -1.824,5.564 -2.172,5.627 C -2.52,5.688 -2.75,6.02 -2.689,6.367 M -0.256,9.031 L -7.783,9.031 C -8.436,9.031 -8.965,8.502 -8.965,7.85 L -8.965,0.322 C -8.965,-0.33 -8.436,-0.859 -7.783,-0.859 L -0.256,-0.859 C 0.396,-0.859 0.926,-0.33 0.926,0.322 L 0.926,7.85 C 0.926,8.502 0.396,9.031 -0.256,9.031"
         style="fill:#000000;fill-opacity:1;fill-rule:nonzero;stroke:none"
         id="path2728" />
    </g>
  </g>
</svg>
